images/master-pain-01.svg

<svg fill="none" height="48" viewBox="0 0 48 48" width="48" xmlns="http://www.w3.org/2000/svg"><g stroke="#ff512f" stroke-linecap="round" stroke-linejoin="round" stroke-width="4"><path d="m32 8h4c1.0609 0 2.0783.42143 2.8284 1.17157.7502.75015 1.1716 1.76753 1.1716 2.82843v28c0 1.0609-.4214 2.0783-1.1716 2.8284-.7501.7502-1.7675 1.1716-2.8284 1.1716h-24c-1.0609 0-2.07828-.4214-2.82843-1.1716-.75014-.7501-1.17157-1.7675-1.17157-2.8284v-28c0-1.0609.42143-2.07828 1.17157-2.82843.75015-.75014 1.76753-1.17157 2.82843-1.17157h4"/><path d="m30 4h-12c-1.1046 0-2 .89543-2 2v4c0 1.1046.8954 2 2 2h12c1.1046 0 2-.8954 2-2v-4c0-1.10457-.8954-2-2-2z"/></g></svg>

<svg width="48" height="48" viewBox="0 0 48 48" fill="none" xmlns="http://www.w3.org/2000/svg">
<path d="M32 8H36C37.0609 8 38.0783 8.42143 38.8284 9.17157C39.5786 9.92172 40 10.9391 40 12V40C40 41.0609 39.5786 42.0783 38.8284 42.8284C38.0783 43.5786 37.0609 44 36 44H12C10.9391 44 9.92172 43.5786 9.17157 42.8284C8.42143 42.0783 8 41.0609 8 40V12C8 10.9391 8.42143 9.92172 9.17157 9.17157C9.92172 8.42143 10.9391 8 12 8H16" stroke="#FF512F" stroke-width="4" stroke-linecap="round" stroke-linejoin="round"/>
<path d="M30 4H18C16.8954 4 16 4.89543 16 6V10C16 11.1046 16.8954 12 18 12H30C31.1046 12 32 11.1046 32 10V6C32 4.89543 31.1046 4 30 4Z" stroke="#FF512F" stroke-width="4" stroke-linecap="round" stroke-linejoin="round"/>
</svg>
